!!!OTL: ES IST EIN SCHNEE GEFALLEN
!!!ARE: Europa, Mitteleuropa, Deutschland
!!!SCT: F1105
!!!YEM: Copyright 1995, estate of Helmut Schaffrath.
**kern
*ICvox
*Ivox
*M2/4
*k[f#]
*e:
{8b
=1
8b
8gn
8a
8ccn
=2
4ccn
8b}
{8ee
=3
8ddn
8b
8a#
8cc#
=4
4.b}
{8ggn
=5
8ff#
8ddn
8ccn
8ee
=6
4ee
8ddn}
{8ee
=7
8ddn
8b
8a
8ccn
=8
4ccn
8b}
{8a
=9
8.gn
16e
8b
16f#
16gn
=10
4e
8ee}
{8ddn
=11
16ddn
16ccn
16b
16a
8b
16f#
16gn
=12
4e
8r}
==
!!!AGN: Natur -, Jahreszeiten - Lied, Fruehling
!!!ONB: ESAC (Essen Associative Code) Database: FINK
!!!AMT: simple duple
!!!AIN: vox
!!!EED: Helmut Schaffrath
!!!EEV: 1.0
*-
